X: 21639
T: Killavil, The
R: jig
M: 6/8
K: Edorian
|:{c}Bee {c}Bee|Bz f edB|{c}BAF {A}FEF|DFA {c}BAG|
Bee {c}BeA|Bzf {ef}edB|{c}BAF dF{E}F|{A}FED E2A:|
BEB ~g3|fz f edB|{c}BAF {A}FEF|DFA {c}BAF|
eBe ~g3|fz f edB|{c}BAF dF{E}F|{A}FED E2A|
BEB gbg|{a}gaf edB|{c}BAF {A}FEF|DzA {c}BAF|
eBe ~g3|fz f edB|{c}BAF dF{E}F|{A}FED E2A|
P: 2nd time
BEE {c}BEA|Bz f edB|{c}BAF {A}FEF|DFA {c}BAG|
~E2B ~E2A|Bz f edB|{c}BAF dF{E}F|{A}FED E2A|
~E2B GFE|BAB edB|AFF d2F|AFA dBA|
~E2B GFE|Bz B dcB|AFF d2F|BeB ~B2A|
|:BEB gbg|gaf edB|{c}BAF {A}FEF|Dz A {c}BAF|
eBe ~g3|fz f edB|{c}BAF dFF|{A}FED E2A:|

